X: 10784
T: Drag Her Round The Road
R: reel
M: 4/4
K: Eminor
GA|BEED E2DE|EDB,D DEGA|BEED E2DE|1 GABA A2:|2 GABA A3|
E|G2GF GBdB|c2AB cded|B2BA GABd|dBGB AEED|
G2GF GBdB|cBAB cdeg|gedB c2eB|dBGB A2||
"end" GE|G6||

